X:8
T:Pipe on the Hob, The
S:Trad, arr. Paddy O'Brien
R:jig
E:10
I:speed 350
M:6/8
K:DMix
B1/2c1/2|d^cd ~A2G|~F2D DFD|EDE cGE|~E2D DFA|\
dcB ~c2A|BAG ~A2G|EDD cGE |~E2D D2 :|\
d1/2e1/2|~f2d d^cd|~f2d d^cd|edB ~c2d|e^de age|1 ~f2d d^cd|\
~f2d d^cd|e^de age|~e2d d2:|2 fef gfg |\
afa ~g2e|fed eag|~e2d d2||**

